flaticon/constructions/glass-wall.svg

<svg xmlns="http://www.w3.org/2000/svg" width="32" height="32" viewBox="0 0 24 24">
    <path d="M 23.570312 0 L 0.429688 0 C 0.171875 0 0 0.171875 0 0.429688 L 0 23.570312 C 0 23.828125 0.171875 24 0.429688 24 L 23.570312 24 C 23.828125 24 24 23.828125 24 23.570312 L 24 0.429688 C 24 0.171875 23.828125 0 23.570312 0 Z M 0.855469 8.570312 L 7.714844 8.570312 L 7.714844 15.429688 L 0.855469 15.429688 Z M 8.570312 8.570312 L 15.429688 8.570312 L 15.429688 15.429688 L 8.570312 15.429688 Z M 16.285156 8.570312 L 23.144531 8.570312 L 23.144531 15.429688 L 16.285156 15.429688 Z M 23.144531 7.714844 L 16.285156 7.714844 L 16.285156 0.855469 L 23.144531 0.855469 Z M 15.429688 7.714844 L 8.570312 7.714844 L 8.570312 0.855469 L 15.429688 0.855469 Z M 0.855469 0.855469 L 7.714844 0.855469 L 7.714844 7.714844 L 0.855469 7.714844 Z M 0.855469 16.285156 L 7.714844 16.285156 L 7.714844 23.144531 L 0.855469 23.144531 Z M 8.570312 16.285156 L 15.429688 16.285156 L 15.429688 23.144531 L 8.570312 23.144531 Z M 23.144531 23.144531 L 16.285156 23.144531 L 16.285156 16.285156 L 23.144531 16.285156 Z M 23.144531 23.144531"/>
    <path d="M2.269531 1.414062L1.414062 2.269531C1.242188 2.441406 1.242188 2.699219 1.414062 2.871094 1.5 2.957031 1.628906 3 1.714844 3 1.84375 3 1.929688 2.957031 2.015625 2.871094L2.871094 2.015625C3.042969 1.84375 3.042969 1.585938 2.871094 1.414062 2.699219 1.242188 2.441406 1.242188 2.269531 1.414062zM2.269531 3.558594L1.414062 4.414062C1.242188 4.585938 1.242188 4.84375 1.414062 5.015625 1.5 5.101562 1.585938 5.144531 1.714844 5.144531 1.84375 5.144531 1.929688 5.101562 2.015625 5.015625L2.871094 4.15625C3.042969 3.984375 3.042969 3.730469 2.871094 3.558594 2.699219 3.386719 2.441406 3.386719 2.269531 3.558594zM4.414062 1.414062L3.558594 2.269531C3.386719 2.441406 3.386719 2.699219 3.558594 2.871094 3.644531 2.957031 3.769531 3 3.855469 3 3.984375 3 4.070312 2.957031 4.15625 2.871094L5.015625 2.015625C5.1875 1.84375 5.1875 1.585938 5.015625 1.414062 4.84375 1.242188 4.585938 1.242188 4.414062 1.414062zM9.429688 3C9.558594 3 9.644531 2.957031 9.730469 2.871094L10.585938 2.015625C10.757812 1.84375 10.757812 1.585938 10.585938 1.414062 10.414062 1.242188 10.15625 1.242188 9.984375 1.414062L9.128906 2.269531C8.957031 2.441406 8.957031 2.699219 9.128906 2.871094 9.214844 2.957031 9.300781 3 9.429688 3zM9.429688 5.144531C9.558594 5.144531 9.644531 5.101562 9.730469 5.015625L10.585938 4.15625C10.757812 3.984375 10.757812 3.730469 10.585938 3.558594 10.414062 3.386719 10.15625 3.386719 9.984375 3.558594L9.128906 4.414062C8.957031 4.585938 8.957031 4.84375 9.128906 5.015625 9.214844 5.101562 9.300781 5.144531 9.429688 5.144531zM11.570312 3C11.699219 3 11.785156 2.957031 11.871094 2.871094L12.730469 2.015625C12.898438 1.84375 12.898438 1.585938 12.730469 1.414062 12.558594 1.242188 12.300781 1.242188 12.128906 1.414062L11.269531 2.269531C11.101562 2.441406 11.101562 2.699219 11.269531 2.871094 11.355469 2.957031 11.441406 3 11.570312 3zM17.144531 3C17.269531 3 17.355469 2.957031 17.441406 2.871094L18.300781 2.015625C18.472656 1.84375 18.472656 1.585938 18.300781 1.414062 18.128906 1.242188 17.871094 1.242188 17.699219 1.414062L16.84375 2.269531C16.671875 2.441406 16.671875 2.699219 16.84375 2.871094 16.929688 2.957031 17.015625 3 17.144531 3zM17.144531 5.144531C17.269531 5.144531 17.355469 5.101562 17.441406 5.015625L18.300781 4.15625C18.472656 3.984375 18.472656 3.730469 18.300781 3.558594 18.128906 3.386719 17.871094 3.386719 17.699219 3.558594L16.84375 4.414062C16.671875 4.585938 16.671875 4.84375 16.84375 5.015625 16.929688 5.101562 17.015625 5.144531 17.144531 5.144531zM19.285156 3C19.414062 3 19.5 2.957031 19.585938 2.871094L20.441406 2.015625C20.613281 1.84375 20.613281 1.585938 20.441406 1.414062 20.269531 1.242188 20.015625 1.242188 19.84375 1.414062L18.984375 2.269531C18.8125 2.441406 18.8125 2.699219 18.984375 2.871094 19.070312 2.957031 19.15625 3 19.285156 3zM2.269531 9.128906L1.414062 9.984375C1.242188 10.15625 1.242188 10.414062 1.414062 10.585938 1.5 10.671875 1.585938 10.714844 1.714844 10.714844 1.84375 10.714844 1.929688 10.671875 2.015625 10.585938L2.871094 9.730469C3.042969 9.558594 3.042969 9.300781 2.871094 9.128906 2.699219 8.957031 2.441406 8.957031 2.269531 9.128906zM2.269531 11.269531L1.414062 12.128906C1.242188 12.300781 1.242188 12.558594 1.414062 12.730469 1.5 12.8125 1.585938 12.855469 1.714844 12.855469 1.84375 12.855469 1.929688 12.8125 2.015625 12.730469L2.871094 11.871094C3.042969 11.699219 3.042969 11.441406 2.871094 11.269531 2.699219 11.101562 2.441406 11.101562 2.269531 11.269531zM4.414062 9.128906L3.558594 9.984375C3.386719 10.15625 3.386719 10.414062 3.558594 10.585938 3.644531 10.671875 3.730469 10.714844 3.855469 10.714844 3.984375 10.714844 4.070312 10.671875 4.15625 10.585938L5.015625 9.730469C5.1875 9.558594 5.1875 9.300781 5.015625 9.128906 4.84375 8.957031 4.585938 8.957031 4.414062 9.128906zM9.984375 9.128906L9.128906 9.984375C8.957031 10.15625 8.957031 10.414062 9.128906 10.585938 9.214844 10.671875 9.300781 10.714844 9.429688 10.714844 9.558594 10.714844 9.644531 10.671875 9.730469 10.585938L10.585938 9.730469C10.757812 9.558594 10.757812 9.300781 10.585938 9.128906 10.414062 8.957031 10.15625 8.957031 9.984375 9.128906zM9.984375 11.269531L9.128906 12.128906C8.957031 12.300781 8.957031 12.558594 9.128906 12.730469 9.214844 12.8125 9.300781 12.855469 9.429688 12.855469 9.558594 12.855469 9.644531 12.8125 9.730469 12.730469L10.585938 11.871094C10.757812 11.699219 10.757812 11.441406 10.585938 11.269531 10.414062 11.101562 10.15625 11.101562 9.984375 11.269531zM12.128906 9.128906L11.269531 9.984375C11.101562 10.15625 11.101562 10.414062 11.269531 10.585938 11.355469 10.671875 11.441406 10.714844 11.570312 10.714844 11.699219 10.714844 11.785156 10.671875 11.871094 10.585938L12.730469 9.730469C12.898438 9.558594 12.898438 9.300781 12.730469 9.128906 12.558594 8.957031 12.300781 8.957031 12.128906 9.128906zM17.699219 9.128906L16.84375 9.984375C16.671875 10.15625 16.671875 10.414062 16.84375 10.585938 16.929688 10.671875 17.015625 10.714844 17.144531 10.714844 17.269531 10.714844 17.355469 10.671875 17.441406 10.585938L18.300781 9.730469C18.472656 9.558594 18.472656 9.300781 18.300781 9.128906 18.128906 8.957031 17.871094 8.957031 17.699219 9.128906zM17.699219 11.269531L16.84375 12.128906C16.671875 12.300781 16.671875 12.558594 16.84375 12.730469 16.929688 12.8125 17.015625 12.855469 17.144531 12.855469 17.269531 12.855469 17.355469 12.8125 17.441406 12.730469L18.300781 11.871094C18.472656 11.699219 18.472656 11.441406 18.300781 11.269531 18.128906 11.101562 17.871094 11.101562 17.699219 11.269531zM19.84375 9.128906L18.984375 9.984375C18.8125 10.15625 18.8125 10.414062 18.984375 10.585938 19.070312 10.671875 19.15625 10.714844 19.285156 10.714844 19.414062 10.714844 19.5 10.671875 19.585938 10.585938L20.441406 9.730469C20.613281 9.558594 20.613281 9.300781 20.441406 9.128906 20.269531 8.957031 20.015625 8.957031 19.84375 9.128906zM2.269531 16.84375L1.414062 17.699219C1.242188 17.871094 1.242188 18.128906 1.414062 18.300781 1.5 18.386719 1.585938 18.429688 1.714844 18.429688 1.84375 18.429688 1.929688 18.386719 2.015625 18.300781L2.871094 17.441406C3.042969 17.269531 3.042969 17.015625 2.871094 16.84375 2.699219 16.671875 2.441406 16.671875 2.269531 16.84375zM2.269531 18.984375L1.414062 19.84375C1.242188 20.015625 1.242188 20.269531 1.414062 20.441406 1.5 20.527344 1.585938 20.570312 1.714844 20.570312 1.84375 20.570312 1.929688 20.527344 2.015625 20.441406L2.871094 19.585938C3.042969 19.414062 3.042969 19.15625 2.871094 18.984375 2.699219 18.8125 2.441406 18.8125 2.269531 18.984375zM4.414062 16.84375L3.558594 17.699219C3.386719 17.871094 3.386719 18.128906 3.558594 18.300781 3.644531 18.386719 3.730469 18.429688 3.855469 18.429688 3.984375 18.429688 4.070312 18.386719 4.15625 18.300781L5.015625 17.441406C5.1875 17.269531 5.1875 17.015625 5.015625 16.84375 4.84375 16.671875 4.585938 16.671875 4.414062 16.84375zM9.984375 16.84375L9.128906 17.699219C8.957031 17.871094 8.957031 18.128906 9.128906 18.300781 9.214844 18.386719 9.300781 18.429688 9.429688 18.429688 9.558594 18.429688 9.644531 18.386719 9.730469 18.300781L10.585938 17.441406C10.757812 17.269531 10.757812 17.015625 10.585938 16.84375 10.414062 16.671875 10.15625 16.671875 9.984375 16.84375zM9.984375 18.984375L9.128906 19.84375C8.957031 20.015625 8.957031 20.269531 9.128906 20.441406 9.214844 20.527344 9.300781 20.570312 9.429688 20.570312 9.558594 20.570312 9.644531 20.527344 9.730469 20.441406L10.585938 19.585938C10.757812 19.414062 10.757812 19.15625 10.585938 18.984375 10.414062 18.8125 10.15625 18.8125 9.984375 18.984375zM12.128906 16.84375L11.269531 17.699219C11.101562 17.871094 11.101562 18.128906 11.269531 18.300781 11.355469 18.386719 11.441406 18.429688 11.570312 18.429688 11.699219 18.429688 11.785156 18.386719 11.871094 18.300781L12.730469 17.441406C12.898438 17.269531 12.898438 17.015625 12.730469 16.84375 12.558594 16.671875 12.300781 16.671875 12.128906 16.84375zM17.144531 18.429688C17.269531 18.429688 17.355469 18.386719 17.441406 18.300781L18.300781 17.441406C18.472656 17.269531 18.472656 17.015625 18.300781 16.84375 18.128906 16.671875 17.871094 16.671875 17.699219 16.84375L16.84375 17.699219C16.671875 17.871094 16.671875 18.128906 16.84375 18.300781 16.929688 18.386719 17.015625 18.429688 17.144531 18.429688zM17.144531 20.570312C17.269531 20.570312 17.355469 20.527344 17.441406 20.441406L18.300781 19.585938C18.472656 19.414062 18.472656 19.15625 18.300781 18.984375 18.128906 18.8125 17.871094 18.8125 17.699219 18.984375L16.84375 19.84375C16.671875 20.015625 16.671875 20.269531 16.84375 20.441406 16.929688 20.527344 17.015625 20.570312 17.144531 20.570312zM19.285156 18.429688C19.414062 18.429688 19.5 18.386719 19.585938 18.300781L20.441406 17.441406C20.613281 17.269531 20.613281 17.015625 20.441406 16.84375 20.269531 16.671875 20.015625 16.671875 19.84375 16.84375L18.984375 17.699219C18.8125 17.871094 18.8125 18.128906 18.984375 18.300781 19.070312 18.386719 19.15625 18.429688 19.285156 18.429688zM19.285156 18.429688"/>
</svg>

<svg xmlns="http://www.w3.org/2000/svg" width="32" height="32" viewBox="0 0 24 24">
    <path d="M23.57 0H.43C.172 0 0 .172 0 .43v23.14c0 .258.172.43.43.43h23.14c.258 0 .43-.172.43-.43V.43c0-.258-.172-.43-.43-.43zM.855 8.57h6.86v6.86H.855zm7.715 0h6.86v6.86H8.57zm7.715 0h6.86v6.86h-6.86zm6.86-.855h-6.86V.855h6.86zm-7.715 0H8.57V.855h6.86zM.855.855h6.86v6.86H.855zm0 15.43h6.86v6.86H.855zm7.715 0h6.86v6.86H8.57zm14.575 6.86h-6.86v-6.86h6.86zm0 0"/>
    <path d="M2.27 1.414l-.856.856a.415.415 0 0 0 0 .601.464.464 0 0 0 .3.129.39.39 0 0 0 .302-.129l.855-.855a.415.415 0 0 0 0-.602.415.415 0 0 0-.601 0zm0 0M2.27 3.559l-.856.855a.415.415 0 0 0 0 .602.39.39 0 0 0 .3.129.39.39 0 0 0 .302-.13l.855-.859a.41.41 0 0 0 0-.597.415.415 0 0 0-.601 0zm0 0M4.414 1.414l-.855.856a.415.415 0 0 0 0 .601c.086.086.21.129.296.129a.39.39 0 0 0 .301-.129l.86-.855a.415.415 0 0 0 0-.602.415.415 0 0 0-.602 0zm0 0M9.43 3a.39.39 0 0 0 .3-.129l.856-.855a.415.415 0 0 0 0-.602.415.415 0 0 0-.602 0l-.855.856a.415.415 0 0 0 0 .601.39.39 0 0 0 .3.129zm0 0M9.43 5.145a.39.39 0 0 0 .3-.13l.856-.859a.41.41 0 0 0 0-.597.415.415 0 0 0-.602 0l-.855.855a.415.415 0 0 0 0 .602.39.39 0 0 0 .3.129zm0 0M11.57 3a.39.39 0 0 0 .301-.129l.86-.855a.422.422 0 0 0 0-.602.415.415 0 0 0-.602 0l-.86.856a.422.422 0 0 0 0 .601.39.39 0 0 0 .301.129zm0 0M17.145 3c.125 0 .21-.043.296-.129l.86-.855a.415.415 0 0 0 0-.602.415.415 0 0 0-.602 0l-.855.856a.415.415 0 0 0 0 .601.39.39 0 0 0 .3.129zm0 0M17.145 5.145c.125 0 .21-.043.296-.13l.86-.859a.41.41 0 0 0 0-.597.415.415 0 0 0-.602 0l-.855.855a.415.415 0 0 0 0 .602.39.39 0 0 0 .3.129zm0 0M19.285 3a.39.39 0 0 0 .3-.129l.856-.855a.415.415 0 0 0 0-.602.41.41 0 0 0-.597 0l-.86.856a.415.415 0 0 0 0 .601.39.39 0 0 0 .301.129zm0 0M2.27 9.129l-.856.855a.415.415 0 0 0 0 .602.39.39 0 0 0 .3.129.39.39 0 0 0 .302-.13l.855-.855a.415.415 0 0 0 0-.601.415.415 0 0 0-.601 0zm0 0M2.27 11.27l-.856.859a.415.415 0 0 0 0 .601.4.4 0 0 0 .3.125.4.4 0 0 0 .302-.125l.855-.859a.415.415 0 0 0 0-.601.422.422 0 0 0-.601 0zm0 0M4.414 9.129l-.855.855a.415.415 0 0 0 0 .602.388.388 0 0 0 .296.129.39.39 0 0 0 .301-.13l.86-.855a.415.415 0 0 0 0-.601.415.415 0 0 0-.602 0zm0 0M9.984 9.129l-.855.855a.415.415 0 0 0 0 .602.39.39 0 0 0 .3.129.39.39 0 0 0 .301-.13l.856-.855a.415.415 0 0 0 0-.601.415.415 0 0 0-.602 0zm0 0M9.984 11.27l-.855.859a.415.415 0 0 0 0 .601.4.4 0 0 0 .3.125.4.4 0 0 0 .301-.125l.856-.859a.415.415 0 0 0 0-.601.422.422 0 0 0-.602 0zm0 0M12.129 9.129l-.86.855a.422.422 0 0 0 0 .602.39.39 0 0 0 .301.129.39.39 0 0 0 .301-.13l.86-.855a.422.422 0 0 0 0-.601.415.415 0 0 0-.602 0zm0 0M17.7 9.129l-.856.855a.415.415 0 0 0 0 .602.39.39 0 0 0 .3.129c.126 0 .211-.043.297-.13l.86-.855a.415.415 0 0 0 0-.601.415.415 0 0 0-.602 0zm0 0M17.7 11.27l-.856.859a.415.415 0 0 0 0 .601.4.4 0 0 0 .3.125c.126 0 .211-.043.297-.125l.86-.859a.415.415 0 0 0 0-.601.422.422 0 0 0-.602 0zm0 0M19.844 9.129l-.86.855a.415.415 0 0 0 0 .602.39.39 0 0 0 .301.129.39.39 0 0 0 .3-.13l.856-.855a.415.415 0 0 0 0-.601.41.41 0 0 0-.597 0zm0 0M2.27 16.844l-.856.855a.415.415 0 0 0 0 .602.39.39 0 0 0 .3.129.39.39 0 0 0 .302-.13l.855-.859a.41.41 0 0 0 0-.597.415.415 0 0 0-.601 0zm0 0M2.27 18.984l-.856.86a.41.41 0 0 0 0 .597.39.39 0 0 0 .3.13.39.39 0 0 0 .302-.13l.855-.855a.415.415 0 0 0 0-.602.415.415 0 0 0-.601 0zm0 0M4.414 16.844l-.855.855a.415.415 0 0 0 0 .602.388.388 0 0 0 .296.129.39.39 0 0 0 .301-.13l.86-.859a.41.41 0 0 0 0-.597.415.415 0 0 0-.602 0zm0 0M9.984 16.844l-.855.855a.415.415 0 0 0 0 .602.39.39 0 0 0 .3.129.39.39 0 0 0 .301-.13l.856-.859a.41.41 0 0 0 0-.597.415.415 0 0 0-.602 0zm0 0M9.984 18.984l-.855.86a.41.41 0 0 0 0 .597.39.39 0 0 0 .3.13.39.39 0 0 0 .301-.13l.856-.855a.415.415 0 0 0 0-.602.415.415 0 0 0-.602 0zm0 0M12.129 16.844l-.86.855a.422.422 0 0 0 0 .602.39.39 0 0 0 .301.129.39.39 0 0 0 .301-.13l.86-.859a.417.417 0 0 0 0-.597.415.415 0 0 0-.602 0zm0 0M17.145 18.43c.125 0 .21-.043.296-.13l.86-.859a.41.41 0 0 0 0-.597.415.415 0 0 0-.602 0l-.855.855a.415.415 0 0 0 0 .602.39.39 0 0 0 .3.129zm0 0M17.145 20.57c.125 0 .21-.043.296-.129l.86-.855a.415.415 0 0 0 0-.602.415.415 0 0 0-.602 0l-.855.86a.41.41 0 0 0 0 .597.39.39 0 0 0 .3.13zm0 0M19.285 18.43a.39.39 0 0 0 .3-.13l.856-.859a.41.41 0 0 0 0-.597.41.41 0 0 0-.597 0l-.86.855a.415.415 0 0 0 0 .602.39.39 0 0 0 .301.129zm0 0"/>
</svg>
